; G-Code generated by Simplify3D(R) Version 3.1.1
; ene. 23, 2018 at 3:36:07 
; Settings Summary
;   processName,tumaker both right1
;   applyToModels,20mmTestCube_repaired
;   profileName,Voladora V3 (both extruder)right
;   profileVersion,2017-02-14 12:04:13
;   baseProfile,
;   printMaterial,PLA
;   printQuality,Medium
;   printExtruders,
;   extruderName,Right extruder,Left extruder
;   extruderToolheadNumber,0,1
;   extruderDiameter,0.4,0.4
;   extruderAutoWidth,0,0
;   extruderWidth,0.4,0.4
;   extrusionMultiplier,1,1
;   extruderUseRetract,1,1
;   extruderRetractionDistance,3.8,3.8
;   extruderExtraRestartDistance,0,0
;   extruderRetractionZLift,0,0
;   extruderRetractionSpeed,2880,2880
;   extruderUseCoasting,0,0
;   extruderCoastingDistance,0.2,0.2
;   extruderUseWipe,0,0
;   extruderWipeDistance,5,5
;   primaryExtruder,0
;   layerHeight,0.2
;   topSolidLayers,3
;   bottomSolidLayers,3
;   perimeterOutlines,3
;   printPerimetersInsideOut,1
;   startPointOption,1
;   startPointOriginX,0
;   startPointOriginY,0
;   startPointOriginZ,300
;   sequentialIslands,0
;   spiralVaseMode,0
;   firstLayerHeightPercentage,100
;   firstLayerWidthPercentage,105
;   firstLayerUnderspeed,0.8
;   useRaft,0
;   raftExtruder,0
;   raftLayers,3
;   raftOffset,3
;   raftSeparationDistance,0.14
;   raftInfill,85
;   disableRaftBaseLayers,0
;   useSkirt,1
;   skirtExtruder,0
;   skirtLayers,1
;   skirtOutlines,3
;   skirtOffset,3
;   usePrimePillar,0
;   primePillarExtruder,999
;   primePillarWidth,12
;   primePillarLocation,7
;   primePillarSpeedMultiplier,1
;   useOozeShield,0
;   oozeShieldExtruder,999
;   oozeShieldOffset,2
;   oozeShieldOutlines,1
;   oozeShieldSidewallShape,1
;   oozeShieldSidewallAngle,30
;   oozeShieldSpeedMultiplier,1
;   infillExtruder,0
;   internalInfillPattern,Rectilinear
;   externalInfillPattern,Rectilinear
;   infillPercentage,20
;   outlineOverlapPercentage,25
;   infillExtrusionWidthPercentage,110
;   minInfillLength,2
;   infillLayerInterval,1
;   infillAngles,45,-45
;   overlapInfillAngles,0
;   generateSupport,0
;   supportExtruder,0
;   supportInfillPercentage,30
;   supportExtraInflation,0.5
;   denseSupportLayers,0
;   denseSupportInfillPercentage,70
;   supportLayerInterval,1
;   supportHorizontalPartOffset,0.5
;   supportUpperSeparationLayers,1
;   supportLowerSeparationLayers,1
;   supportType,0
;   supportGridSpacing,1
;   maxOverhangAngle,45
;   supportAngles,45
;   temperatureName,Right extruder,Left extruder,Platform
;   temperatureNumber,0,1,2
;   temperatureSetpointCount,1,1,1
;   temperatureSetpointLayers,1,1,1
;   temperatureSetpointTemperatures,200,200,45
;   temperatureStabilizeAtStartup,1,1,1
;   temperatureHeatedBed,0,0,1
;   temperatureRelayBetweenLayers,0,0,0
;   temperatureRelayBetweenLoops,0,0,0
;   fanLayers,1,2
;   fanSpeeds,0,100
;   blipFanToFullPower,0
;   adjustSpeedForCooling,0
;   minSpeedLayerTime,15
;   minCoolingSpeedSlowdown,20
;   increaseFanForCooling,0
;   minFanLayerTime,45
;   maxCoolingFanSpeed,100
;   increaseFanForBridging,0
;   bridgingFanSpeed,100
;   use5D,1
;   relativeEdistances,0
;   allowEaxisZeroing,1
;   independentExtruderAxes,0
;   includeM10123,0
;   stickySupport,1
;   applyToolheadOffsets,0
;   gcodeXoffset,0
;   gcodeYoffset,0
;   gcodeZoffset,0
;   overrideMachineDefinition,1
;   machineTypeOverride,0
;   strokeXoverride,260
;   strokeYoverride,220
;   strokeZoverride,200
;   originOffsetXoverride,0
;   originOffsetYoverride,0
;   originOffsetZoverride,0
;   homeXdirOverride,-1
;   homeYdirOverride,-1
;   homeZdirOverride,-1
;   flipXoverride,1
;   flipYoverride,-1
;   flipZoverride,1
;   toolheadOffsets,0,0|0,0|0,0|0,0|0,0|0,0
;   overrideFirmwareConfiguration,1
;   firmwareTypeOverride,RepRap (Marlin/Repetier/Sprinter)
;   GPXconfigOverride,r2
;   baudRateOverride,115200
;   overridePrinterModels,0
;   printerModelsOverride
;   startingGcode,G21			;Metric values,G90			;Absolut positioning,M82			;set extruder to absolute mode,G28			;home position all axis,G29			;Autolevel secuence,G0 X0 Y0 F3600		;Go start position,M104 S[extruder1_temperature] T1	;Set up left extruder heater,M109 S[extruder0_temperature]  T0	;Set up extruder temperature,M400,T1,G92 E0			;Zero extruder position,G1 F200 E35			;Extrude 35mm of filament,G92 E0			;Zero extruder position,G1 F3600 E-11		;Retract 11mm of filament,M400			;finish all moves,T0,G92 E0			;Zero extruder position,G1 F200 E35			;Extrude 35mm of filament,G92 E0			;Zero extruder position,M400			;finish all moves,G92 X-6			;comand to center on platform,M400			;Finish all moves,
;   layerChangeGcode,
;   retractionGcode,
;   toolChangeGcode,{IF OLDTOOL=1} M400,{IF OLDTOOL=1} T1,{IF OLDTOOL=1} G92 E0,{IF OLDTOOL=1} G1 E-11 F3600,{IF OLDTOOL=1} G92 E0,{IF OLDTOOL=1} M400,{IF OLDTOOL=1} T0,{IF OLDTOOL=1} G92 E0,{IF OLDTOOL=1} G1 E10 F250,{IF OLDTOOL=1} G92 E0,{IF OLDTOOL=1} M400
;   endingGcode,M400			;Finish all moves,M104 S0			;Extruder heater off,M140 S0			;Heat bed heater off,G91			;Relative positioning,G1 E-10 F300		;Retract 10mm of filament,G1 Z+20 X-20 Y-20 F6000		;Move axis,G90			;Absolut positioning,G0 X0 Y210 F6000		;Go to X Y repose position ,G0 Z195			;Down Z axis,M107			;,M84			;Steppers off,
;   exportFileFormat,gcode
;   celebration,0
;   celebrationSong,Random Song
;   postProcessing,
;   defaultSpeed,1800
;   outlineUnderspeed,0.75
;   solidInfillUnderspeed,1
;   supportUnderspeed,1
;   rapidXYspeed,9000
;   rapidZspeed,2700
;   minBridgingArea,50
;   bridgingExtraInflation,0
;   bridgingExtrusionMultiplier,1
;   bridgingSpeedMultiplier,1
;   filamentDiameter,1.75
;   filamentPricePerKg,40
;   filamentDensity,1.24
;   useMinPrintHeight,0
;   minPrintHeight,0
;   useMaxPrintHeight,0
;   maxPrintHeight,5
;   useDiaphragm,0
;   diaphragmLayerInterval,20
;   robustSlicing,1
;   mergeAllIntoSolid,0
;   onlyRetractWhenCrossingOutline,1
;   retractBetweenLayers,0
;   useRetractionMinTravel,1
;   retractionMinTravel,2
;   retractWhileWiping,0
;   onlyWipeOutlines,0
;   avoidCrossingOutline,1
;   maxMovementDetourFactor,3
;   toolChangeRetractionDistance,0
;   toolChangeExtraRestartDistance,0
;   toolChangeRetractionSpeed,360
;   allowThinWallGapFill,1
;   thinWallAllowedOverlapPercentage,50
;   horizontalSizeCompensation,0
G90
M82
M106 S0
M140 S45
M190 S45
G21			;Metric values
G90			;Absolut positioning
M82			;set extruder to absolute mode
G28			;home position all axis
G29			;Autolevel secuence
G0 X0 Y0 F3600		;Go start position
M104 S200 T1	;Set up left extruder heater
M109 S200  T0	;Set up extruder temperature
M400
T1
G92 E0			;Zero extruder position
G1 F200 E35			;Extrude 35mm of filament
G92 E0			;Zero extruder position
G1 F3600 E-11		;Retract 11mm of filament
M400			;finish all moves
T0
G92 E0			;Zero extruder position
G1 F200 E35			;Extrude 35mm of filament
G92 E0			;Zero extruder position
M400			;finish all moves
G92 X-6			;comand to center on platform
M400			;Finish all moves
G92 E0
G1 E-3.8000 F2880
G1 Z0.200 F2700
; layer 1, Z = 0.2
T0
; tool H0.200 W0.420
; skirt
G1 X116.152 Y98.191 F9000
G1 E0.0000 F864
G92 E0
G1 X118.191 Y96.152 E0.1007 F1440
G1 X118.558 Y96.000 E0.1146
G1 X141.442 Y96.000 E0.9137
G1 X141.809 Y96.152 E0.9276
G1 X143.848 Y98.191 E1.0283
G1 X144.000 Y98.558 E1.0422
G1 X144.000 Y121.442 E1.8414
G1 X143.848 Y121.809 E1.8552
G1 X141.809 Y123.848 E1.9559
G1 X141.442 Y124.000 E1.9698
G1 X118.558 Y124.000 E2.7690
G1 X118.191 Y123.848 E2.7829
G1 X116.152 Y121.809 E2.8836
G1 X116.000 Y121.442 E2.8975
G1 X116.000 Y98.558 E3.6966
G1 X116.152 Y98.191 E3.7105
G1 X116.491 Y98.417 F9000
G92 E0
G1 X118.417 Y96.491 E0.0951 F1440
G1 X118.638 Y96.400 E0.1035
G1 X141.362 Y96.400 E0.8971
G1 X141.583 Y96.491 E0.9054
G1 X143.509 Y98.417 E1.0005
G1 X143.600 Y98.638 E1.0089
G1 X143.600 Y121.362 E1.8025
G1 X143.509 Y121.583 E1.8108
G1 X141.583 Y123.509 E1.9059
G1 X141.362 Y123.600 E1.9143
G1 X118.638 Y123.600 E2.7078
G1 X118.417 Y123.509 E2.7162
G1 X116.491 Y121.583 E2.8113
G1 X116.400 Y121.362 E2.8196
G1 X116.400 Y98.638 E3.6132
G1 X116.491 Y98.417 E3.6216
G1 X116.830 Y98.644 F9000
G92 E0
G1 X118.644 Y96.830 E0.0896 F1440
G1 X118.718 Y96.800 E0.0924
G1 X141.282 Y96.800 E0.8804
G1 X141.356 Y96.830 E0.8832
G1 X143.170 Y98.644 E0.9727
G1 X143.200 Y98.718 E0.9755
G1 X143.200 Y121.282 E1.7636
G1 X143.170 Y121.356 E1.7663
G1 X141.356 Y123.170 E1.8559
G1 X141.282 Y123.200 E1.8587
G1 X118.718 Y123.200 E2.6467
G1 X118.644 Y123.170 E2.6495
G1 X116.830 Y121.356 E2.7391
G1 X116.800 Y121.282 E2.7418
G1 X116.800 Y98.718 E3.5299
G1 X116.830 Y98.644 E3.5327
; inner perimeter
G1 X138.950 Y101.050 F9000
G92 E0
G1 X138.950 Y118.950 E0.6251 F1320
G1 X121.050 Y118.950 E1.2502
G1 X121.050 Y101.050 E1.8754
G1 X138.950 Y101.050 E2.5005
; inner perimeter
G1 X139.370 Y100.630 F9000
G92 E0
G1 X139.370 Y119.370 E0.6545 F1200
G1 X120.630 Y119.370 E1.3089
G1 X120.630 Y100.630 E1.9634
G1 X139.370 Y100.630 E2.6178
; outer perimeter
G1 X139.790 Y100.210 F9000
G92 E0
G1 X139.790 Y119.790 E0.6838 F1080
G1 X120.210 Y119.790 E1.3676
G1 X120.210 Y100.210 E2.0514
G1 X139.790 Y100.210 E2.7352
; solid layer
G1 X138.590 Y101.365 F9000
G92 E0
G1 X138.635 Y101.410 E0.0022 F1440
G1 X138.635 Y102.004 E0.0230
G1 X137.996 Y101.365 E0.0545
G1 X137.402 Y101.365 E0.0753
G1 X138.635 Y102.598 E0.1361
G1 X138.635 Y103.192 E0.1569
G1 X136.808 Y101.365 E0.2471
G1 X136.214 Y101.365 E0.2678
G1 X138.635 Y103.786 E0.3874
G1 X138.635 Y104.380 E0.4082
G1 X135.620 Y101.365 E0.5570
G1 X135.026 Y101.365 E0.5778
G1 X138.635 Y104.974 E0.7560
G1 X138.635 Y105.568 E0.7768
G1 X134.432 Y101.365 E0.9843
G1 X133.838 Y101.365 E1.0051
G1 X138.635 Y106.162 E1.2420
G1 X138.635 Y106.756 E1.2627
G1 X133.244 Y101.365 E1.5289
G1 X132.650 Y101.365 E1.5497
G1 X138.635 Y107.350 E1.8453
G1 X138.635 Y107.944 E1.8660
G1 X132.056 Y101.365 E2.1909
G1 X131.462 Y101.365 E2.2116
G1 X138.635 Y108.538 E2.5659
G1 X138.635 Y109.131 E2.5866
G1 X130.869 Y101.365 E2.9702
G1 X130.275 Y101.365 E2.9910
G1 X138.635 Y109.725 E3.4039
G1 X138.635 Y110.319 E3.4246
G1 X129.681 Y101.365 E3.8669
G1 X129.087 Y101.365 E3.8876
G1 X138.635 Y110.913 E4.3592
G1 X138.635 Y111.507 E4.3799
G1 X128.493 Y101.365 E4.8808
G1 X127.899 Y101.365 E4.9016
G1 X138.635 Y112.101 E5.4318
G1 X138.635 Y112.695 E5.4526
G1 X127.305 Y101.365 E6.0122
G1 X126.711 Y101.365 E6.0329
G1 X138.635 Y113.289 E6.6218
G1 X138.635 Y113.883 E6.6426
G1 X126.117 Y101.365 E7.2608
G1 X125.523 Y101.365 E7.2816
G1 X138.635 Y114.477 E7.9292
G1 X138.635 Y115.071 E7.9499
G1 X124.929 Y101.365 E8.6269
G1 X124.335 Y101.365 E8.6476
G1 X138.635 Y115.665 E9.3539
G1 X138.635 Y116.259 E9.3746
G1 X123.741 Y101.365 E10.1102
G1 X123.147 Y101.365 E10.1310
G1 X138.635 Y116.853 E10.8959
G1 X138.635 Y117.447 E10.9166
G1 X122.553 Y101.365 E11.7109
G1 X121.959 Y101.365 E11.7317
G1 X138.635 Y118.041 E12.5553
G1 X138.635 Y118.635 E12.5760
G1 X121.365 Y101.365 E13.4289
G1 X121.365 Y101.959 E13.4497
G1 X138.041 Y118.635 E14.2733
G1 X137.447 Y118.635 E14.2940
G1 X121.365 Y102.553 E15.0883
G1 X121.365 Y103.147 E15.1091
G1 X136.853 Y118.635 E15.8740
G1 X136.259 Y118.635 E15.8947
G1 X121.365 Y103.741 E16.6303
G1 X121.365 Y104.335 E16.6511
G1 X135.665 Y118.635 E17.3574
G1 X135.071 Y118.635 E17.3781
G1 X121.365 Y104.929 E18.0550
G1 X121.365 Y105.523 E18.0758
G1 X134.477 Y118.635 E18.7234
G1 X133.883 Y118.635 E18.7441
G1 X121.365 Y106.117 E19.3624
G1 X121.365 Y106.711 E19.3831
G1 X133.289 Y118.635 E19.9720
G1 X132.695 Y118.635 E19.9928
G1 X121.365 Y107.305 E20.5524
G1 X121.365 Y107.899 E20.5731
G1 X132.101 Y118.635 E21.1034
G1 X131.507 Y118.635 E21.1241
G1 X121.365 Y108.493 E21.6250
G1 X121.365 Y109.087 E21.6458
G1 X130.913 Y118.635 E22.1174
G1 X130.319 Y118.635 E22.1381
G1 X121.365 Y109.681 E22.5804
G1 X121.365 Y110.275 E22.6011
G1 X129.725 Y118.635 E23.0140
G1 X129.131 Y118.635 E23.0348
G1 X121.365 Y110.869 E23.4183
G1 X121.365 Y111.462 E23.4391
G1 X128.538 Y118.635 E23.7933
G1 X127.944 Y118.635 E23.8141
G1 X121.365 Y112.056 E24.1390
G1 X121.365 Y112.650 E24.1597
G1 X127.350 Y118.635 E24.4553
G1 X126.756 Y118.635 E24.4760
G1 X121.365 Y113.244 E24.7423
G1 X121.365 Y113.838 E24.7630
G1 X126.162 Y118.635 E24.9999
G1 X125.568 Y118.635 E25.0207
G1 X121.365 Y114.432 E25.2282
G1 X121.365 Y115.026 E25.2490
G1 X124.974 Y118.635 E25.4272
G1 X124.380 Y118.635 E25.4479
G1 X121.365 Y115.620 E25.5968
G1 X121.365 Y116.214 E25.6176
G1 X123.786 Y118.635 E25.7371
G1 X123.192 Y118.635 E25.7579
G1 X121.365 Y116.808 E25.8481
G1 X121.365 Y117.402 E25.8688
G1 X122.598 Y118.635 E25.9297
G1 X122.004 Y118.635 E25.9505
G1 X121.365 Y117.996 E25.9820
G1 X121.365 Y118.590 E26.0028
G1 X121.410 Y118.635 E26.0050
; layer 2, Z = 0.4
M106 S255
; tool H0.200 W0.400
; inner perimeter
G1 X139.000 Y119.000 F9000
G1 Z0.400 F2700
G92 E0
G1 X121.000 Y119.000 E0.5987 F1650
G1 X121.000 Y101.000 E1.1974
G1 X139.000 Y101.000 E1.7960
G1 X139.000 Y119.000 E2.3947
; inner perimeter
G1 X139.400 Y119.400 F9000
G92 E0
G1 X120.600 Y119.400 E0.6253 F1500
G1 X120.600 Y100.600 E1.2506
G1 X139.400 Y100.600 E1.8759
G1 X139.400 Y119.400 E2.5012
; outer perimeter
G1 X139.800 Y119.800 F9000
G92 E0
G1 X120.200 Y119.800 E0.6519 F1350
G1 X120.200 Y100.200 E1.3038
G1 X139.800 Y100.200 E1.9557
G1 X139.800 Y119.800 E2.6076
; solid layer
G1 X138.700 Y118.271 F9000
G92 E0
G1 X138.271 Y118.700 E0.0202 F1800
G1 X137.705 Y118.700 E0.0390
G1 X138.700 Y117.705 E0.0858
G1 X138.700 Y117.139 E0.1046
G1 X137.139 Y118.700 E0.1780
G1 X136.574 Y118.700 E0.1969
G1 X138.700 Y116.574 E0.2969
G1 X138.700 Y116.008 E0.3157
G1 X136.008 Y118.700 E0.4423
G1 X135.442 Y118.700 E0.4611
G1 X138.700 Y115.442 E0.6144
G1 X138.700 Y114.876 E0.6332
G1 X134.876 Y118.700 E0.8130
G1 X134.311 Y118.700 E0.8319
G1 X138.700 Y114.311 E1.0383
G1 X138.700 Y113.745 E1.0571
G1 X133.745 Y118.700 E1.2902
G1 X133.179 Y118.700 E1.3090
G1 X138.700 Y113.179 E1.5687
G1 X138.700 Y112.614 E1.5875
G1 X132.614 Y118.700 E1.8738
G1 X132.048 Y118.700 E1.8926
G1 X138.700 Y112.048 E2.2055
G1 X138.700 Y111.482 E2.2243
G1 X131.482 Y118.700 E2.5638
G1 X130.917 Y118.700 E2.5826
G1 X138.700 Y110.917 E2.9487
G1 X138.700 Y110.351 E2.9675
G1 X130.351 Y118.700 E3.3602
G1 X129.785 Y118.700 E3.3790
G1 X138.700 Y109.785 E3.7984
G1 X138.700 Y109.220 E3.8172
G1 X129.220 Y118.700 E4.2631
G1 X128.654 Y118.700 E4.2819
G1 X138.700 Y108.654 E4.7545
G1 X138.700 Y108.088 E4.7733
G1 X128.088 Y118.700 E5.2724
G1 X127.523 Y118.700 E5.2912
G1 X138.700 Y107.523 E5.8170
G1 X138.700 Y106.957 E5.8358
G1 X126.957 Y118.700 E6.3882
G1 X126.391 Y118.700 E6.4070
G1 X138.700 Y106.391 E6.9859
G1 X138.700 Y105.826 E7.0048
G1 X125.826 Y118.700 E7.6103
G1 X125.260 Y118.700 E7.6291
G1 X138.700 Y105.260 E8.2613
G1 X138.700 Y104.694 E8.2801
G1 X124.694 Y118.700 E8.9389
G1 X124.128 Y118.700 E8.9577
G1 X138.700 Y104.128 E9.6432
G1 X138.700 Y103.563 E9.6620
G1 X123.563 Y118.700 E10.3740
G1 X122.997 Y118.700 E10.3928
G1 X138.700 Y102.997 E11.1314
G1 X138.700 Y102.431 E11.1502
G1 X122.431 Y118.700 E11.9154
G1 X121.866 Y118.700 E11.9343
G1 X138.700 Y101.866 E12.7261
G1 X138.700 Y101.300 E12.7449
G1 X121.300 Y118.700 E13.5633
G1 X121.300 Y118.134 E13.5822
G1 X138.134 Y101.300 E14.3740
G1 X137.569 Y101.300 E14.3928
G1 X121.300 Y117.569 E15.1580
G1 X121.300 Y117.003 E15.1769
G1 X137.003 Y101.300 E15.9155
G1 X136.437 Y101.300 E15.9343
G1 X121.300 Y116.437 E16.6463
G1 X121.300 Y115.872 E16.6651
G1 X135.872 Y101.300 E17.3505
G1 X135.306 Y101.300 E17.3693
G1 X121.300 Y115.306 E18.0281
G1 X121.300 Y114.740 E18.0469
G1 X134.740 Y101.300 E18.6791
G1 X134.175 Y101.300 E18.6979
G1 X121.300 Y114.175 E19.3035
G1 X121.300 Y113.609 E19.3223
G1 X133.609 Y101.300 E19.9013
G1 X133.043 Y101.300 E19.9201
G1 X121.300 Y113.043 E20.4725
G1 X121.300 Y112.477 E20.4913
G1 X132.477 Y101.300 E21.0171
G1 X131.912 Y101.300 E21.0359
G1 X121.300 Y111.912 E21.5350
G1 X121.300 Y111.346 E21.5538
G1 X131.346 Y101.300 E22.0264
G1 X130.780 Y101.300 E22.0452
G1 X121.300 Y110.780 E22.4911
G1 X121.300 Y110.215 E22.5099
G1 X130.215 Y101.300 E22.9293
G1 X129.649 Y101.300 E22.9481
G1 X121.300 Y109.649 E23.3408
G1 X121.300 Y109.083 E23.3596
